X:430
T:The Rover's Return (O'Reilly's Jig)
M:6/8
L:1/8
K:D
gf|:"A"TeAA {fa}"D"fed|"A"eAA "G"(g2f)|"A"TeAA T"D7"fed|"G"BGG (g2 f)|
"A"eAA {fa}"D"fed|"A"efg (a2 f)|"G"gag ({fa}f2e)|dBG GAB:|
|:"A"A2 a {ab}aea|{ab}"A"aea {ab}"E7"aec|"A"Ace {ab}"D7"agf|"G"TgdB GAB|
"A"A2a {ab}aef|"G"gfe "A"(a2 f)|"C"gag "D7"(Tf2 e)|"G"dBG GAB:|]


